X: 19098
T: Irish Lamentation
R: waltz
M: 3/4
K: Gmajor
B2 B2 B2|B3 A G2|e2 A2 A2|A4 GA|
B2 dB AG|E2 D2 GA|B3 c BA|G4:|
d2 d2 d2|d2 cB AG|G2 g2 g2|g4 Bc|
d2 d2 d2|ed cB AG|G2 g2 f2|g4 de|
=f3 g f2|e4 g2|d2 cB AG|A4 GA|
B2 dB AG|E2 D2 GA|B3 c BA|G4||

